X:7
T:Miss Manns Reel. LIT.007
M:2/2
Q:1/4=140
L:1/8
B:Wm. Litten MS, 1802
Z:Village Music Project 2017 Anne Wride
K:G %double-tonic
G2 BG | dG BG | =F2 A=F | c=F A=F | G2 BG | dG BG | AB AG | FD D2 :|
|:gf gd | BG G2 | =fe fc | A=F FA | gf gd | BG GB | A>B AG | FD D2 :|

